Origami/32x32/apps/QOwnNotes.svg

<svg width="32" height="32" version="1" xmlns="http://www.w3.org/2000/svg">
 <defs>
  <clipPath id="clipPath4483">
   <path d="m91.5 254c-0.831 0-1.5 0.669-1.5 1.5v25c0 0.831 0.669 1.5 1.5 1.5h16.5l10-10v-16.5c0-0.831-0.669-1.5-1.5-1.5z" fill="#fecd38"/>
  </clipPath>
 </defs>
 <path d="m28 2s2 0 2 2v24c0 2-2 2-2 2h-16l-10-10v-16c0-2 2-2 2-2z" style="fill:#303d75"/>
 <path transform="matrix(-1,0,0,1,120,-252)" d="m118 272h-8.5c-0.82843 0-1.5 0.67158-1.5 1.5v8.5z" clip-path="url(#clipPath4483)" style="opacity:.2"/>
 <path d="m2 20h8.5c0.828 0 1.5 0.672 1.5 1.5v8.5z" style="fill:#44559e"/>
 <path d="m10.5 20c0.828 0 1.5 0.672 1.5 1.5v1c0-0.828-0.672-1.5-1.5-1.5h-7.5l-1-1h8.5z" style="fill:#ffffff;opacity:.1"/>
 <path d="m2 20 10 10h16.5c0.831 0 1.5-0.669 1.5-1.5v1c0 0.831-0.669 1.5-1.5 1.5h-16.5l-10-10v-1z" style="opacity:.2"/>
 <path d="m16 7.9999999a5 5 0 0 0 -0.4375 0.0214844 4.6666673 4.6666673 0 0 0 -0.097656 0.0117187 5 5 0 0 0 -4.464844 4.966797 5 5 0 0 0 2e-3 0.03711 3.5 3.5 0 0 0 -3.002 3.46289 3.5 3.5 0 0 0 0.0019531 0.085938 3.3333338 3.3333338 0 0 0 -0.0019531 0.080078 3.3333338 3.3333338 0 0 0 3.333984 3.333984h0.166016 8.5a4.0000005 4.0000005 0 0 0 4 -4 4.0000005 4.0000005 0 0 0 -3.080078 -3.882812 5 5 0 0 0 -4.240234 -4.0644537 4.6666673 4.6666673 0 0 0 -0.064454 -0.0097656 5 5 0 0 0 -0.304687 -0.0273438 4.6666673 4.6666673 0 0 0 -0.310547 -0.015625zm-0.0098 2.0019531c0.0514 0.0013 0.103059 0.0016 0.154297 0.0059a2.0002 2.0002 0 0 0 0.04883 0.0039c0.06109 0.0036 0.120885 0.01025 0.181641 0.01758a2.0002 2.0002 0 0 0 0.0332 0.0039c1.294249 0.177691 2.310672 1.153882 2.542969 2.439453a2.0002 2.0002 0 0 0 1.509766 1.591797c0.909621 0.214954 1.532726 1.00331 1.537109 1.9375-0.001406 1.126862-0.870687 1.998017-1.998012 1.998017h-8.5-0.166016c-0.760301 1.48e-4 -1.3341323-0.573683-1.333984-1.333984 7.7e-5 -0.0025-9.15e-5 -0.0053 0-0.0078a2.0002 2.0002 0 0 0 0 -0.142578c-1.81e-4 -0.0052 1.28e-4 -0.01046 0-0.01563 3.24e-4 -0.760541 0.534308-1.374198 1.287109-1.482422a2.0002 2.0002 0 0 0 1.712891 -2.015633c0.0014-1.548232 1.140347-2.81476 2.679688-2.980469a2.0002 2.0002 0 0 0 0.04492 -0.0059c0.0079-1e-3 0.01549-9.9e-4 0.02344-2e-3 0.08074-0.0075 0.161108-0.01076 0.242187-0.01172z" style="opacity:.2"/>
 <path d="m16 7a5 5 0 0 0 -0.4375 0.0214844 4.6666673 4.6666673 0 0 0 -0.097656 0.0117187 5 5 0 0 0 -4.464844 4.9667969 5 5 0 0 0 0.001953 0.037109 3.5 3.5 0 0 0 -3.001953 3.462891 3.5 3.5 0 0 0 0.0019531 0.085938 3.3333338 3.3333338 0 0 0 -0.0019531 0.080078 3.3333338 3.3333338 0 0 0 3.333984 3.333984h0.166016 8.5a4.0000005 4.0000005 0 0 0 4 -4 4.0000005 4.0000005 0 0 0 -3.080078 -3.882812 5 5 0 0 0 -4.240234 -4.0644536 4.6666673 4.6666673 0 0 0 -0.064454 -0.0097656 5 5 0 0 0 -0.304687 -0.0273438 4.6666673 4.6666673 0 0 0 -0.310547 -0.015625zm-0.009766 2.0019531c0.0514 0.00132 0.103059 0.0015694 0.154297 0.0058594a2.0002 2.0002 0 0 0 0.048828 0.0039063c0.06109 0.0036 0.120885 0.0102461 0.181641 0.0175781a2.0002 2.0002 0 0 0 0.033203 0.0039062c1.294249 0.1776912 2.310672 1.1538819 2.542969 2.4394529a2.0002 2.0002 0 0 0 1.509766 1.591797c0.909621 0.214954 1.532726 1.00331 1.537109 1.9375-0.001441 1.126892-0.870722 1.998047-1.998047 1.998047h-8.5-0.166016c-0.760301 1.48e-4 -1.3341323-0.573683-1.333984-1.333984 7.7e-5 -0.0025-9.15e-5 -0.005313 0-0.007813a2.0002 2.0002 0 0 0 0 -0.142578c-1.81e-4 -0.0052 1.28e-4 -0.010455 0-0.015625 3.24e-4 -0.760541 0.534308-1.374198 1.287109-1.482422a2.0002 2.0002 0 0 0 1.712891 -2.015625c0.0014-1.548232 1.140347-2.81476 2.679688-2.9804686a2.0002 2.0002 0 0 0 0.044921 -0.0058594c0.0079-0.00104 0.015488-9.898e-4 0.023438-0.0019531 0.08074-0.00752 0.161108-0.0107608 0.242187-0.0117188z" style="fill:#5d8cb9"/>
 <path d="m4 2s-2 0-2 2v1c0-2 2-2 2-2h24s2 0 2 2v-1c0-2-2-2-2-2h-24z" style="fill:#ffffff;opacity:.1"/>
</svg>

<svg xmlns="http://www.w3.org/2000/svg" width="32" height="32" version="1">
 <defs>
  <clipPath id="clipPath4483" clipPathUnits="userSpaceOnUse">
   <path fill="#fecd38" d="m91.5 254c-0.831 0-1.5 0.669-1.5 1.5v25c0 0.831 0.669 1.5 1.5 1.5h16.5l10-10v-16.5c0-0.831-0.669-1.5-1.5-1.5z"/>
  </clipPath>
 </defs>
 <path style="fill:#303d75" d="m 28,2 c 0,0 2,0 2,2 l 0,24 c 0,2 -2,2 -2,2 L 12,30 2,20 2,4 C 2,2 4,2 4,2 Z"/>
 <path style="opacity:0.2" d="m 118,272 -8.5,0 c -0.82843,0 -1.5,0.67158 -1.5,1.5 l 0,8.5 z" clip-path="url(#clipPath4483)" transform="matrix(-1,0,0,1,120,-252)"/>
 <path style="fill:#44559e" d="m 2,20 8.5,0 c 0.828,0 1.5,0.672 1.5,1.5 l 0,8.5 z"/>
 <path style="opacity:0.1;fill:#ffffff" d="m 10.5,20 c 0.828,0 1.5,0.672 1.5,1.5 l 0,1 C 12,21.672 11.328,21 10.5,21 L 3,21 2,20 l 8.5,0 z"/>
 <path style="opacity:0.2" d="m 2,20 10,10 16.5,0 c 0.831,0 1.5,-0.669 1.5,-1.5 l 0,1 C 30,30.331 29.331,31 28.5,31 L 12,31 2,21 2,20 Z"/>
 <path style="opacity:0.2" d="M 16,7.9999999 A 5,5 0 0 0 15.5625,8.0214843 4.6666673,4.6666673 0 0 0 15.464844,8.033203 5,5 0 0 0 11,13 a 5,5 0 0 0 0.002,0.03711 A 3.5,3.5 0 0 0 8,16.5 3.5,3.5 0 0 0 8.0019531,16.585938 3.3333338,3.3333338 0 0 0 8,16.666016 3.3333338,3.3333338 0 0 0 11.333984,20 L 11.5,20 20,20 A 4.0000005,4.0000005 0 0 0 24,16 4.0000005,4.0000005 0 0 0 20.919922,12.117188 5,5 0 0 0 16.679688,8.0527343 4.6666673,4.6666673 0 0 0 16.615234,8.0429687 5,5 0 0 0 16.310547,8.0156249 4.6666673,4.6666673 0 0 0 16,7.9999999 Z m -0.0098,2.0019531 c 0.0514,0.0013 0.103059,0.0016 0.154297,0.0059 a 2.0002,2.0002 0 0 0 0.04883,0.0039 c 0.06109,0.0036 0.120885,0.01025 0.181641,0.01758 a 2.0002,2.0002 0 0 0 0.0332,0.0039 c 1.294249,0.177691 2.310672,1.153882 2.542969,2.439453 a 2.0002,2.0002 0 0 0 1.509766,1.591797 c 0.909621,0.214954 1.532726,1.00331 1.537109,1.9375 C 21.996606,17.128845 21.127325,18 20,18 l -8.5,0 -0.166016,0 C 10.573683,18.000148 9.9998517,17.426317 10,16.666016 c 7.7e-5,-0.0025 -9.15e-5,-0.0053 0,-0.0078 a 2.0002,2.0002 0 0 0 0,-0.142578 c -1.81e-4,-0.0052 1.28e-4,-0.01046 0,-0.01563 3.24e-4,-0.760541 0.534308,-1.374198 1.287109,-1.482422 A 2.0002,2.0002 0 0 0 13,13.001953 c 0.0014,-1.548232 1.140347,-2.81476 2.679688,-2.980469 a 2.0002,2.0002 0 0 0 0.04492,-0.0059 c 0.0079,-0.001 0.01549,-9.9e-4 0.02344,-0.002 0.08074,-0.0075 0.161108,-0.01076 0.242187,-0.01172 z"/>
 <path style="fill:#5d8cb9" d="M 16 7 A 5 5 0 0 0 15.5625 7.0214844 A 4.6666673 4.6666673 0 0 0 15.464844 7.0332031 A 5 5 0 0 0 11 12 A 5 5 0 0 0 11.001953 12.037109 A 3.5 3.5 0 0 0 8 15.5 A 3.5 3.5 0 0 0 8.0019531 15.585938 A 3.3333338 3.3333338 0 0 0 8 15.666016 A 3.3333338 3.3333338 0 0 0 11.333984 19 L 11.5 19 L 20 19 A 4.0000005 4.0000005 0 0 0 24 15 A 4.0000005 4.0000005 0 0 0 20.919922 11.117188 A 5 5 0 0 0 16.679688 7.0527344 A 4.6666673 4.6666673 0 0 0 16.615234 7.0429688 A 5 5 0 0 0 16.310547 7.015625 A 4.6666673 4.6666673 0 0 0 16 7 z M 15.990234 9.0019531 C 16.041634 9.0032731 16.093293 9.0035225 16.144531 9.0078125 A 2.0002 2.0002 0 0 0 16.193359 9.0117188 C 16.254449 9.0153188 16.314244 9.0219649 16.375 9.0292969 A 2.0002 2.0002 0 0 0 16.408203 9.0332031 C 17.702452 9.2108943 18.718875 10.187085 18.951172 11.472656 A 2.0002 2.0002 0 0 0 20.460938 13.064453 C 21.370559 13.279407 21.993664 14.067763 21.998047 15.001953 C 21.996606 16.128845 21.127325 17 20 17 L 11.5 17 L 11.333984 17 C 10.573683 17.000148 9.9998517 16.426317 10 15.666016 C 10.000077 15.663516 9.9999085 15.660703 10 15.658203 A 2.0002 2.0002 0 0 0 10 15.515625 C 9.999819 15.510425 10.000128 15.50517 10 15.5 C 10.000324 14.739459 10.534308 14.125802 11.287109 14.017578 A 2.0002 2.0002 0 0 0 13 12.001953 C 13.0014 10.453721 14.140347 9.187193 15.679688 9.0214844 A 2.0002 2.0002 0 0 0 15.724609 9.015625 C 15.732509 9.014585 15.740097 9.0146352 15.748047 9.0136719 C 15.828787 9.0061519 15.909155 9.0029111 15.990234 9.0019531 z"/>
 <path style="fill:#ffffff;opacity:0.1" d="M 4 2 C 4 2 2 2 2 4 L 2 5 C 2 3 4 3 4 3 L 28 3 C 28 3 30 3 30 5 L 30 4 C 30 2 28 2 28 2 L 4 2 z"/>
</svg>
